svgs/light/bridge-circle-exclamation.svg

<svg xmlns="http://www.w3.org/2000/svg" viewBox="0 0 640 512"><!--! Font Awesome Pro 6.4.0 by @fontawesome - https://fontawesome.com License - https://fontawesome.com/license (Commercial License) Copyright 2023 Fonticons, Inc. --><path d="M48 32h80H256 384 512h80c8.8 0 16 7.2 16 16s-7.2 16-16 16H528v64h64c8.8 0 16 7.2 16 16s-7.2 16-16 16H512 384 256 128 48c-8.8 0-16-7.2-16-16s7.2-16 16-16h64V64H48c-8.8 0-16-7.2-16-16s7.2-16 16-16zM496 64H400v64h96V64zM368 64H272v64h96V64zM240 64H144v64h96V64zM48 240H64c53 0 96 43 96 96v96c0 8.8 7.2 16 16 16h32c8.8 0 16-7.2 16-16V336c0-53 43-96 96-96c16.1 0 31.2 4 44.6 10.9c-7.2 8.1-13.7 16.9-19.3 26.2c-7.7-3.3-16.3-5.2-25.2-5.2c-35.3 0-64 28.7-64 64v96c0 26.5-21.5 48-48 48H176c-26.5 0-48-21.5-48-48V336c0-35.3-28.7-64-64-64H48c-8.8 0-16-7.2-16-16s7.2-16 16-16zM608 368a112 112 0 1 0 -224 0 112 112 0 1 0 224 0zm-256 0a144 144 0 1 1 288 0 144 144 0 1 1 -288 0zm144 32a24 24 0 1 1 0 48 24 24 0 1 1 0-48zm0-112c8.8 0 16 7.2 16 16v64c0 8.8-7.2 16-16 16s-16-7.2-16-16V304c0-8.8 7.2-16 16-16z"/></svg>

<svg xmlns="http://www.w3.org/2000/svg" viewBox="0 0 640 512"><!--! Font Awesome Pro 6.3.0 by @fontawesome - https://fontawesome.com License - https://fontawesome.com/license (Commercial License) Copyright 2023 Fonticons, Inc. --><path d="M592 32C600.8 32 608 39.16 608 48C608 56.84 600.8 64 592 64H528V128H592C600.8 128 608 135.2 608 144C608 152.8 600.8 160 592 160H48C39.16 160 32 152.8 32 144C32 135.2 39.16 128 48 128H112V64H48C39.16 64 32 56.84 32 48C32 39.16 39.16 32 48 32H592zM496 64H400V128H496V64zM272 64V128H368V64H272zM240 64H144V128H240V64zM64 240C117 240 160 282.1 160 336V432C160 440.8 167.2 448 176 448H208C216.8 448 224 440.8 224 432V336C224 282.1 266.1 240 320 240C336.1 240 351.2 243.1 364.6 250.9C357.3 259 350.9 267.8 345.2 277.2C337.5 273.8 328.1 272 320 272C284.7 272 256 300.7 256 336V432C256 458.5 234.5 480 208 480H176C149.5 480 128 458.5 128 432V336C128 300.7 99.35 272 64 272H48C39.16 272 32 264.8 32 256C32 247.2 39.16 240 48 240H64zM472 424C472 410.7 482.7 400 496 400C509.3 400 520 410.7 520 424C520 437.3 509.3 448 496 448C482.7 448 472 437.3 472 424zM495.1 288C504.8 288 511.1 295.2 511.1 304V368C511.1 376.8 504.8 384 495.1 384C487.2 384 479.1 376.8 479.1 368V304C479.1 295.2 487.2 288 495.1 288zM640 368C640 447.5 575.5 512 496 512C416.5 512 352 447.5 352 368C352 288.5 416.5 224 496 224C575.5 224 640 288.5 640 368zM496 256C434.1 256 384 306.1 384 368C384 429.9 434.1 480 496 480C557.9 480 608 429.9 608 368C608 306.1 557.9 256 496 256z"/></svg>
